vice/share/icons/Adwaita/scalable/categories/emoji-nature-symbolic.svg

<?xml version="1.0" encoding="UTF-8"?>
<svg height="16px" viewBox="0 0 16 16" width="16px" xmlns="http://www.w3.org/2000/svg">
    <path d="m 6 1 s -3 0 -3 3 v 5 s 0.042969 1.417969 0.027344 2 c 0 1 -0.535156 1.414062 -1.402344 2.121094 c -0.628906 0.488281 -0.773438 1.308594 -0.308594 1.699218 c 0.429688 0.351563 1.164063 0.300782 1.660156 -0.34375 l 1.019532 -1.476562 c 0.699218 -1.015625 0.984375 -1.875 1 -3 l 0.003906 -6 c 0 -1 0.996094 -1 0.996094 -1 v 6.574219 l 3.003906 -3.074219 v -2.5 c 0 -1 0.996094 -1 0.996094 -1 l 0.003906 2.5 l 1.996094 -2.035156 c 0.339844 -0.3125 0.503906 -0.464844 1 -0.464844 l 0.003906 1 l -4.003906 4 h 4 s 0.003906 1 -1 1 h -4 l -2 2 c 0 0.425781 0 2.007812 2 2.007812 l 4.003906 -0.007812 s 3 0 2.996094 -2.992188 v -9.007812 z m 0 0" fill="#2e3436"/>
</svg>

<svg xmlns="http://www.w3.org/2000/svg" width="16" height="16"><path d="M6.003 1s-3 0-3 3v5s.044 1.419.028 2c0 1-.537 1.413-1.404 2.121-.627.49-.774 1.31-.307 1.697.43.356 1.162.304 1.66-.343L4 13c.698-1.014.983-1.876 1-3l.003-6C5.003 3 6 3 6 3v6.574L9.003 6.5V4c0-1 .997-1 .997-1l.003 2.5L12 3.465c.338-.312.503-.465 1-.465l.003 1L9 8h4s.003 1-1 1H8l-2 2c0 .426 0 2.006 2 2.006L12.003 13s3 0 2.997-2.99V1z" style="line-height:normal;font-variant-ligatures:normal;font-variant-position:normal;font-variant-caps:normal;font-variant-numeric:normal;font-variant-alternates:normal;font-feature-settings:normal;text-indent:0;text-align:start;text-decoration-line:none;text-decoration-style:solid;text-decoration-color:#000;text-transform:none;text-orientation:mixed;white-space:normal;shape-padding:0;isolation:auto;mix-blend-mode:normal;solid-color:#000;solid-opacity:1" color="#000" font-weight="400" font-family="sans-serif" overflow="visible" fill="#2e3436"/></svg>
